X:1
T:St. Olives, CM
T:St. Olives, CM
T:Joseph Funk, 1832
T:Public Domain Courtesy of the Cyber Hymnal™
C:Joseph Funk, 1832
Z:Public Domain
Z:Courtesy of the Cyber Hymnal™
%%score ( 1 2 ) ( 3 4 )
L:1/8
M:4/4
K:C
V:1 treble 
V:2 treble 
V:3 bass 
V:4 bass 
V:1
 [EA]4 | [EA]2 [GB]2 [Ec]2 [Ad]2 | [Ad]4 [Ec]4 | [EB]4 [GB]4 | (A2 B2 c2) [FB]2 | [EA]4 [E^G]4 | %6
 !fermata![EA]4 [Ge]4 | [Ge]2 [Gd]2 [Ec]2 [GB]2 | [EA]4 [Ac]4 | [GB]4 E4 | [EA]2 (AB) [Ec]2 [Ad]2 | %11
 !fermata![Ge]4 [ce]4 | c2 ([Bd]2 [Ae]2) (ed) | [Ec]4 [EB]4 | !fermata![EA]4 |] %15
V:2
 x4 | x8 | x8 | x8 | E6 x2 | x8 | x8 | x8 | x8 | x4 E4 | x2 E2 x4 | x8 | (c2 x2 G2) x2 | x8 | x4 |] %15
V:3
 [A,C]4 | [A,E]2 (ED) [A,C]2 [F,A,]2 | [D,A,]4 [A,,A,]4 | [E,G,]4 [E,^G,]4 | %4
 ([A,,A,]2 [E,^G,]2 [C,A,]2) [D,D]2 | [E,C]4 [E,B,]4 | !fermata![A,,A,]4 [A,C]4 | %7
 C2 [B,D]2 [A,E]2 [G,D]2 | [A,C]4 A,4 | [E,G,]4 [E,B,]4 | [C,C]2 [A,,C]2 A,2 [F,A,]2 | %11
 !fermata![E,B,]4 [E,^G,]4 | ([A,,A,]2 [B,,G,]2 [C,A,]2) [D,B,]2 | [E,A,]4 [E,^G,]4 | %14
 !fermata![A,,A,]4 |] %15
V:4
 x4 | x2 ^G,2 x4 | x8 | x8 | x8 | x8 | x8 | C2 x6 | x4 A,4 | x8 | x4 A,2 x2 | x8 | x8 | x8 | x4 |] %15

